X: 1854
T: Sand Jig
B: australian traditional tunes wiki
M:4/4
L:1/8
R: Step Tune
Q: 1/4=100
K:C
V:1 
|:"C"[E2c2](3GEG c>G E>G|"Dm"F2(3AFA c>A F>A|"G7"G>B G>B d>B G>B|"C"c>e c>e g>e c>G|
E2(3GEG c>G E>G|"Dm"F2(3AFA c>A F>A|"G7"G>B d>B G>f d>B|"C"c2[E2G2c2][E2G2c2]"Fine"z2:|
|:"Am"A2 (3cAc e>c A>c|"E7"B>e B>^G E>E ^F>G|"Am"A2 (3cAc e>c A>c|"E7"B>e B>^G E2e2|
"Am" A2 (3cAc e>c A>c|"E7"B>e B>^G E2f2|"Am"(3efe "E7"(3ded "Am"(3cdc "G7"(3BcB|1"Am"A2a2a2z2:|2"Am"A2z2"G7"[F4B4]||
% abcbook-tune_id 6342d53a2b2ea4445b137f0f


% abcbook-boost 0
% abcbook-tablature 
% abcbook-transpose 
% abcbook-lastupdated 1665324388350
% abcbook-soundfonts 
% abcbook-repeats 1
% NFF Book 2018

